X: 17640
T: Hole In The Hedge, The
R: jig
M: 6/8
K: Cmajor
|:C2E EDE|GED E2D|C2E EDE|GEC DED|
C2E EDE|GEG c3|cde dcA|1 GEC DED:|2 GEC D3||
|:c2e dcA|GEG GAB|c2e dcA|GEC D3|
cde dcA|GEG GAB|cBc A/B/cA|1 GEC D3:|2 GEC DED||

